packages/kaspersky-hexa-ui-icons/src/iconsSVGs/16/WindowLayout.svg

<svg width="16" height="16" viewBox="0 0 16 16" fill="none" xmlns="http://www.w3.org/2000/svg">
<path fill-rule="evenodd" clip-rule="evenodd" d="M1 4.3125C1 3.20793 1.89543 2.3125 3 2.3125H13C14.1046 2.3125 15 3.20793 15 4.3125V11.6875C15 12.7921 14.1046 13.6875 13 13.6875H3C1.89543 13.6875 1 12.7921 1 11.6875V4.3125ZM2.3 4.472V11.6875C2.3 12.0741 2.6134 12.3875 3 12.3875H5.09255V4.472H2.3ZM13 12.3875H6.39255V8.64949C6.40118 8.64983 6.40984 8.65 6.41855 8.65H13.7V11.6875C13.7 12.0741 13.3866 12.3875 13 12.3875ZM13.7 7.35H6.41855C6.40984 7.35 6.40118 7.35017 6.39255 7.35051V4.472H13.7V7.35Z" fill="black"/>
</svg>

<svg xmlns="http://www.w3.org/2000/svg" width="16" height="16" fill="none" viewBox="0 0 16 16"><path fill="#000" fill-rule="evenodd" d="M1 4.3125c0-1.1046.8954-2 2-2h10c1.1046 0 2 .8954 2 2v7.375c0 1.1046-.8954 2-2 2H3c-1.1046 0-2-.8954-2-2zm1.3.1595v7.2155a.7.7 0 0 0 .7.7h2.0926V4.472zM13 12.3875H6.3926v-3.738l.026.0005H13.7v3.0375a.7.7 0 0 1-.7.7m.7-5.0375H6.4186l-.026.0005V4.472H13.7z"/></svg>
